X: 1
T: Mealagh Valley, The
M: 2/4
L: 1/8
R: polka
K: Gmaj
de/f/ |: gG BA |GB dg |fe ce |d2 de/f/ |
gG BA |GB dg |e2 fe/f/ ||1 g2 de/f/ :|2g3 f/g/ ||
|: ag fd |\ed Bg |fe ce |d3 f/g/ |
ag fd |ed Bd |e2 f2 ||1 g3 f/g/ :|2 g4 ||
